X:1
T:William Byrd ~1540 - 1623
T:Dies Sanctificatus
%%score [ 1 2 3 4 ]
L:1/8
Q:1/4=200
M:4/4
K:C
V:1 treble nm="Cantus primus"
V:2 treble nm="Cantus secundus"
V:3 treble nm="Tenor"
V:4 treble nm="Bassus"
V:1
"^Q""^:" x2"^S" x2 ||[K:F] =B8 c8 | c4 c2 c2 d8 | c8 z4 G4 |[M:4/2] c6 B2 A8 x4 | G4 C4 F6 E2 x8 | %6
w: |Di- es|san- cti- fi- ca-|tus il-|lu- xit no-|bis, * * *|
w: |||||* il- lu- xit|
 D8 ^C8 x2 | z8 z4 E4 | F4 G4 A4 E2 G2 x2 | F2 G2 E4 D4 z2 A2 | A2 A2 G2 D2 F3 E D4 | %11
w: |ve-|ni- te gen- tes,~ ~gen-|* * * tes et|ad- o- ra- te Do- mi~- ~num,|
w: no- bis:|||||
 z2 d2 d2 d2 c2 A2 B3 A | F2 A2 A2 A2 G2 F2 B2 G2 | A4 B3 A G4 z4 | z2 d2 d2 d2 c2 A2 x4- | %15
w: ||* Do- mi- num,|et ad- o- ra- te Do-|
w: et ad- o- ra- te Do- mi-|num, et ad- o- ra- te Do- mi-|num, * * *||
 x2 C2 E4 D12 | D4 E8 z4 x6 | F4 A4 B6 A2 x2 | F4 A4 G8 x2 | F4 z8 | z4 D4 F4 A6 | G2 E4 F4 D8 | %22
w: mi~- ~num, Do-|mi~- ~num|qui- a ho- di-|e de- scen-|dit,|||
w: |||||qui- a ho-|di- e de- scen-|
 C4 z8 d8 | B4 A4 G4 F4 | G4 F2 E2 x8 | D4 B6 A2 G2 ^F2 x8 | G8 ^F8 x8 | G6 A2 =B4 c4 x4 | z16 x2 | %29
w: * lux|ma- gna su- per|ter- * *|ram, su- per ter- *|* ram.|Al- le- lu- ia,||
w: dit *|||||||
 A6 B2 ^c4 d4 x6 | z16 x4 | D6 E2 F2 G2 A6 x4 | G2 F2 E2"^-" x8- x8 | x8 |] %34
w: Al- le- lu- ia,||Al- le- lu- * *|* * * ia.||
w: |||||
V:2
"^Q""^:" x2 x2 ||[K:F] G8 G8 | A4 G2 A2 B8 | G4 A4 c6 B2 |[M:4/2] A4 G4 C4 F8 | %5
w: |Di- es|san- cti- fi- ca-|tus il- lu- xit|no- bis, il- lu-|
w: |||||
 E4 D2 C2 D2 E2 F8 x4 | E4 z2 E2 F4 G4 x2 | A8 x8 | D2 d2 d2 d2 c2 A2 c6 | B2 A2 G2 F2 G2 A4 z2 | %10
w: xit no- * * * *|bis: ve- ni- te|gen-|tes et ad- o- ra- te Do-|* * * * mi~- ~num,|
w: |||||
 d2 d2 d2 c2 A2 B2 F3 G | AF B3 B A4 z2 F2 x2 | F2 F2 E2 C2 D6 E2 | %13
w: |* * * * * et|ad- o- ra- te Do- mi-|
w: et ad- o- ra- te Do- * *|* * * mi~- ~num, *||
 F4 E2 D4 ^C=B, !courtesy!^C3 C | D2 B2 B2 B2 A2 F2 A3 A | G4 c6 B2 A8 | G4 A16 x2 | z8 z8 x2 | %18
w: num, Do- * * * * mi-|num, et ad- o- ra- te Do- mi-|num, Do- * *|mi~- ~num||
w: |||||
 z4 E4 G4 A6 | G2 E4 x6 | F4 D8 C4 x2 | z8 d8 x2 | B4 A4 G4 F4 x4 | B4 F4 z8 | d8 B4 A4 | %25
w: qui- a ho-|di- e|de- scen- dit,|lux|ma- gna su- per|ter- ram,||
w: ||||||lux ma- gna|
 G4 F4 B16 | A8 z16 | E6 F2 G4 A4 x4 | z8 z4 A6 | B2 ^c4 d8 z8 | D6 E2 F2 G2 A6 x2 | %31
w: ||Al- le- lu- ia,|||Al- le- lu * *|
w: su- per ter-|ram.||Al-|le- lu- ia,||
 G2 G8 ^F4"^-" x8 | x22 | x8 |] %34
w: |||
w: |||
V:3
"^Q""^:" x2 x2 ||[K:F][K:treble-8] d8 e8 | f4 g2 f2 f4 d4 | e4 f8 e4 | %4
w: |Di- es|san- cti- fi- ca- tus|il- lu- xit|
w: ||||
[M:4/2][K:treble-8] f4 c4 z4 F4 x4 | c8 B4 A6 x6 | G2 F2 G2 A2 E2 F2 G2 A4 | %7
w: no- bis, il-|lu- xit no-|* * * bis: ve- ni- te gen-|
w: |||
 D2 d4 ^c=B !courtesy!^cd e2 x4 | d8 z4 A4 x2 | B4 c4 d4 A4 | F4 G2 B2 A4 z2 a2 | %11
w: tes, gen- * * * * *|tes, ve-|ni- te gen- tes,|gen * * tes et|
w: ||||
 a2 a2 g2 d2 f3 e d2 d2 | d2 d2 c2 A2 B3 A G2 G2 | F4 z4 z2 g2 g2 g2 | f2 d2 f6 f2 c4 | %15
w: ad- o- ra- te Do- mi~- ~num, *||* et ad- o-|ra- te Do- mi- num,|
w: * * * * * * * et|ad- o- ra- te Do- * * mi-|num, * * *||
 z2 g2 g2 g2 f2 d2 f6 x2 | e2 d8 ^c4 d8 | d6 d2 d8 x2 | z4 c4 e4 f6 | e2 c4 x6 | d4 B8 A4 x2 | %21
w: ||Do- mi- num|qui- a ho-|di- e|de- scen- dit|
w: et ad- o- ra- te Do-|* * mi- num,|||||
 c8 A4 D4 x2 | F4 F4 B6 A2 x4 | G4 z4 d8 | B4 A4 G2 d4 ^c2 | d4 D4 d16 | d8 e6 f2 x8 | g4 c4 c12 | %28
w: lux ma- gna|su- per ter- *|ram, *||* * ter-|ram. Al- le-|lu- ia, *|
w: ||* lux|ma- gna su- per ter-|* ram, *||* * Al-|
 c4 x14 | f8 e4 f8 x2 | e4 d6 c2 B2 A2 x4 | G4 A8 d6 x4 | c2 B4 A2 G2 A8 x4 |"^-" x8 |] %34
w: |* * Al-|le- lu- * * *|* ia,~ Al-|le- lu- * * *||
w: le-|lu- ia, *|||||
V:4
"^Q""^:""^Q" x2 x2 ||[K:F][K:bass] G,8 C,8 | F,4 E,2 F,2 B,,8 | C,16 |[M:4/2] z4 C,4 F,8 x4 | %5
w: |Di- es|san- cti- fi- ca-|tus|il- lu-|
w: |||||
 C,8 D,16 | A,,12 B,,4 x2 | A,,6 C,2 x8 | B,,8 A,,8 x2 | z4 A,,4 B,,4 C,4 | D,4 G,,4 z4 D,4 | %11
w: xit no|bis, il-|lu- xit|no- bis:|ve- ni- te|gen- tes, *|
w: |||||* * ve-|
 F,4 G,4 A,4 D,4 | z8 z2 B,2 B,2 B,2 | A,2 F,2 G,3 F, E,4 E,4 | D,8 z2 F,2 F,2 F,2 | %15
w: |et ad- o-|ra- te Do- * * mi-|num, * * *|
w: ni- te gen- tes|||* et ad- o-|
 E,4 C,4 D,6 C,2 x4 | B,,4 B,,4 A,,8 x6 | z4 D,4 F,4 G,6 | F,2 D,4 F,4 C,8 | F,,4 z8 | %20
w: ||qui- a ho-|di- e de- scen-|dit,|
w: ra- te Do- *|* mi~- ~num||||
 z4 B,,4 D,4 F,6 | E,2 C,4 D,4 B,,8 | F,,4 z8 B,8 | G,4 F,4 G,4 D,4 | G,,4 A,,4 x8 | %25
w: ||* lux|ma- gna su- per|ter- *|
w: qui- a ho-|di- e de- scen-|dit *|||
 B,,6 A,,2 G,,6 A,,2 x8 | B,,2 A,,2 B,,2 C,2 D,8 x8 | z16 x4 | C,6 D,2 E,4 F,4 x2 | z8 z4 D,8 x2 | %30
w: |* * * * ram.||Al- le- lu- ia,|Al-|
w: |||||
 E,4 ^F,8 G,8 | D,12 D,4 x6 | D,16 x6 |"^-" x8 |] %34
w: le- lu- ia,|Al- le-|lu-||
w: ||||

